public/build/img/icDispositivo.svg

<svg xmlns="http://www.w3.org/2000/svg" xmlns:xlink="http://www.w3.org/1999/xlink" width="500" zoomAndPan="magnify" viewBox="0 0 375 374.999991" height="500" preserveAspectRatio="xMidYMid meet" version="1.0"><defs><clipPath id="7aaf112975"><path d="M 112.5 112.5 L 262.5 112.5 L 262.5 262.5 L 112.5 262.5 Z M 112.5 112.5 " clip-rule="nonzero"/></clipPath></defs><g clip-path="url(#7aaf112975)"><path fill="#040606" d="M 252.371094 112.449219 L 136.765625 112.449219 C 131.234375 112.449219 126.730469 116.953125 126.730469 122.480469 L 126.730469 144.582031 L 123.164062 144.582031 C 117.253906 144.582031 112.449219 149.390625 112.449219 155.292969 L 112.449219 240.980469 C 112.449219 246.886719 117.253906 251.6875 123.164062 251.6875 L 148.152344 251.6875 C 148.152344 257.601562 152.957031 262.402344 158.863281 262.402344 L 187.425781 262.402344 C 193.332031 262.402344 198.132812 257.601562 198.132812 251.6875 L 198.132812 248.121094 L 223.128906 248.121094 C 225.105469 248.121094 226.699219 246.523438 226.699219 244.554688 C 226.699219 242.578125 225.105469 240.980469 223.128906 240.980469 L 217.085938 240.980469 L 212.660156 212.417969 L 252.550781 212.417969 C 257.980469 212.417969 262.402344 208 262.402344 202.5625 L 262.402344 122.480469 C 262.402344 116.953125 257.898438 112.449219 252.371094 112.449219 Z M 133.871094 122.480469 C 133.871094 120.890625 135.171875 119.589844 136.765625 119.589844 L 252.371094 119.589844 C 253.964844 119.589844 255.261719 120.890625 255.261719 122.480469 L 255.261719 183.859375 L 183.859375 183.859375 L 183.859375 155.292969 C 183.859375 149.390625 179.050781 144.582031 173.144531 144.582031 L 133.871094 144.582031 Z M 119.589844 166.003906 L 176.71875 166.003906 L 176.71875 183.859375 L 158.863281 183.859375 C 152.957031 183.859375 148.152344 188.660156 148.152344 194.566406 L 148.152344 230.273438 L 119.589844 230.273438 Z M 155.292969 205.277344 L 190.992188 205.277344 L 190.992188 240.980469 L 155.292969 240.980469 Z M 190.992188 194.566406 L 190.992188 198.132812 L 155.292969 198.132812 L 155.292969 194.566406 C 155.292969 192.597656 156.894531 190.992188 158.863281 190.992188 L 187.425781 190.992188 C 189.394531 190.992188 190.992188 192.597656 190.992188 194.566406 Z M 123.164062 151.722656 L 173.144531 151.722656 C 175.113281 151.722656 176.71875 153.328125 176.71875 155.292969 L 176.71875 158.863281 L 119.589844 158.863281 L 119.589844 155.292969 C 119.589844 153.328125 121.1875 151.722656 123.164062 151.722656 Z M 123.164062 244.554688 C 121.1875 244.554688 119.589844 242.949219 119.589844 240.980469 L 119.589844 237.414062 L 148.152344 237.414062 L 148.152344 244.554688 Z M 187.425781 255.261719 L 158.863281 255.261719 C 156.894531 255.261719 155.292969 253.65625 155.292969 251.6875 L 155.292969 248.121094 L 190.992188 248.121094 L 190.992188 251.6875 C 190.992188 253.65625 189.394531 255.261719 187.425781 255.261719 Z M 209.859375 240.980469 L 198.132812 240.980469 L 198.132812 212.417969 L 205.429688 212.417969 Z M 255.261719 202.5625 C 255.261719 204.0625 254.042969 205.277344 252.550781 205.277344 L 198.132812 205.277344 L 198.132812 194.566406 C 198.132812 193.875 198.058594 193.210938 197.933594 192.550781 C 197.890625 192.351562 197.828125 192.152344 197.777344 191.945312 C 197.695312 191.628906 197.632812 191.304688 197.527344 190.992188 L 255.261719 190.992188 L 255.261719 202.5625 " fill-opacity="1" fill-rule="nonzero"/></g></svg>

<svg xmlns="http://www.w3.org/2000/svg" width="500" viewBox="0 0 375 375" height="500" version="1.0"><defs><clipPath id="a"><path d="M112.5 112.5h150v150h-150zm0 0"/></clipPath></defs><g clip-path="url(#a)"><path fill="#040606" d="M252.371 112.45H136.766c-5.532 0-10.036 4.503-10.036 10.03v22.102h-3.566c-5.91 0-10.715 4.809-10.715 10.711v85.687c0 5.907 4.805 10.708 10.715 10.708h24.988c0 5.914 4.805 10.714 10.711 10.714h28.563c5.906 0 10.707-4.8 10.707-10.714v-3.567h24.996a3.566 3.566 0 003.57-3.566 3.568 3.568 0 00-3.57-3.575h-6.043l-4.426-28.562h39.89c5.43 0 9.852-4.418 9.852-9.856V122.48c0-5.527-4.504-10.03-10.03-10.03zm-118.5 10.03a2.9 2.9 0 012.895-2.89H252.37c1.594 0 2.89 1.3 2.89 2.89v61.38h-71.4v-28.567c0-5.902-4.808-10.711-10.714-10.711H133.87zm-14.281 43.524h57.129v17.855h-17.856c-5.906 0-10.71 4.801-10.71 10.707v35.707H119.59zm35.703 39.273h35.7v35.703h-35.7zm35.7-10.71v3.566h-35.7v-3.567a3.578 3.578 0 013.57-3.574h28.563a3.574 3.574 0 013.566 3.574zm-67.829-42.844h49.98a3.58 3.58 0 013.575 3.57v3.57h-57.13v-3.57a3.575 3.575 0 013.575-3.57zm0 92.832a3.576 3.576 0 01-3.574-3.575v-3.566h28.562v7.14zm64.262 10.707h-28.563a3.578 3.578 0 01-3.57-3.575v-3.566h35.7v3.566a3.574 3.574 0 01-3.567 3.575zm22.433-14.282h-11.726v-28.562h7.297zm45.403-38.417c0 1.5-1.219 2.714-2.711 2.714h-54.418v-10.71c0-.692-.074-1.356-.2-2.016-.042-.2-.105-.399-.156-.606-.082-.316-.144-.64-.25-.953h57.735v11.57"/></g></svg>
